X: 28248
T: Mrs. Hogan's Goose
R: jig
M: 6/8
K: Bminor
d/c/|BAF BAF|BAF B2c|dBB BAB|cAF F2c|
BAF BAF|BAF B2c|dcB cec|cBB B2:|
c|d2e fdB|c2d ecA|d2e fdB|cec BAF|
d2e fdB|c2d ecA|fed cdc|cBB B2:|

